X: 1
T: the Flight
T: Mutual Love
O: 1777
S: handwritten MS by John Chambers (1970s)
D: the Canterbury Orchestra
Z: 2014 John Chambers <jc:trillian.mit.edu>
R: jig
Z: 2014 John Chambers <jc:trillian.mit.edu>
M: 6/8
L: 1/8
K: C
zG |\
"C"ced ced | c2G G2G | Gcc cBc | "G7"dfe d2G |\
"C"ced ced | c2G G2G | "G7"GBc dcB | "C"c3 z :|
|: ef |\
"C"g2e efg | "F"a2f def | "C"g2e cBc | "G7"d2B Gef |\
"C"g2e efg | "F"a2f def | "C"gec "G7"dcB | "C"c3 z :|
